src/assets/filled/Forward5Seconds.svg

<svg width="24" height="24" viewBox="0 0 24 24"  xmlns="http://www.w3.org/2000/svg">
<path d="M19.48 7.09003C19.22 6.77003 18.75 6.72003 18.43 6.98003C18.11 7.24003 18.06 7.71003 18.32 8.03003C19.45 9.43003 20.08 11.09 20.14 12.83C20.3 17.31 16.78 21.09 12.29 21.24C7.80003 21.4 4.03003 17.88 3.87003 13.4C3.71003 8.92003 7.23003 5.14003 11.72 4.99003C12.29 4.97003 12.89 5.02003 13.54 5.15003C13.58 5.16003 13.62 5.15003 13.66 5.15003C13.76 5.20003 13.88 5.23003 13.99 5.23003C14.16 5.23003 14.32 5.18003 14.46 5.06003C14.78 4.80003 14.83 4.33003 14.58 4.01003L12.6 1.54003C12.34 1.22003 11.87 1.16003 11.55 1.42003C11.23 1.68003 11.18 2.15003 11.43 2.47003L12.26 3.50003C12.07 3.49003 11.87 3.48003 11.68 3.49003C6.37003 3.67003 2.20003 8.15003 2.39003 13.46C2.58003 18.77 7.05003 22.94 12.36 22.75C17.67 22.56 21.84 18.09 21.65 12.78C21.56 10.71 20.82 8.74003 19.48 7.09003Z" />
<path d="M12.3799 16.9201H10.0899C9.67988 16.9201 9.33988 16.5801 9.33988 16.1701C9.33988 15.7601 9.67988 15.4201 10.0899 15.4201H12.3799C12.8099 15.4201 13.1599 15.0701 13.1599 14.6401C13.1599 14.2101 12.8099 13.8601 12.3799 13.8601H10.0899C9.84988 13.8601 9.61988 13.7401 9.47988 13.5501C9.33988 13.3601 9.29988 13.1001 9.37988 12.8701L10.1399 10.5801C10.2399 10.2701 10.5299 10.0701 10.8499 10.0701H13.9099C14.3199 10.0701 14.6599 10.4101 14.6599 10.8201C14.6599 11.2301 14.3199 11.5701 13.9099 11.5701H11.3899L11.1299 12.3601H12.3799C13.6399 12.3601 14.6599 13.3801 14.6599 14.6401C14.6599 15.9001 13.6399 16.9201 12.3799 16.9201Z" />
</svg>

<?xml version="1.0" encoding="UTF-8"?>
<svg width="24" height="24" viewBox="0 0 24 24" xmlns="http://www.w3.org/2000/svg">
 <path d="m19.48 7.09c-0.26-0.32-0.73-0.37-1.05-0.11s-0.37 0.73-0.11 1.05c1.13 1.4 1.76 3.06 1.82 4.8 0.16 4.48-3.36 8.26-7.85 8.41-4.49 0.16-8.26-3.36-8.42-7.84-0.16-4.48 3.36-8.26 7.85-8.41 0.57-0.02 1.17 0.03 1.82 0.16 0.04 0.01 0.08 0 0.12 0 0.1 0.05 0.22 0.08 0.33 0.08 0.17 0 0.33-0.05 0.47-0.17 0.32-0.26 0.37-0.73 0.12-1.05l-1.98-2.47c-0.26-0.32-0.73-0.38-1.05-0.12s-0.37 0.73-0.12 1.05l0.83 1.03c-0.19-0.01-0.39-0.02-0.58-0.01-5.31 0.18-9.48 4.66-9.29 9.97 0.19 5.31 4.66 9.48 9.97 9.29 5.31-0.19 9.48-4.66 9.29-9.97-0.09-2.07-0.83-4.04-2.17-5.69z"/>
 <path d="m12.38 16.92h-2.29c-0.41002 0-0.75002-0.34-0.75002-0.75s0.34-0.75 0.75002-0.75h2.29c0.43 0 0.78-0.35 0.78-0.78s-0.35-0.78-0.78-0.78h-2.29c-0.24002 0-0.47002-0.12-0.61002-0.31s-0.18-0.45-0.1-0.68l0.76002-2.29c0.1-0.31 0.39-0.51 0.71-0.51h3.06c0.41 0 0.75 0.34 0.75 0.75s-0.34 0.75-0.75 0.75h-2.52l-0.26 0.79h1.25c1.26 0 2.28 1.02 2.28 2.28s-1.02 2.28-2.28 2.28z"/>
</svg>
